X:1
T:Title
%%score { ( 1 3 ) | ( 2 4 5 ) }
L:1/8
Q:1/4=108
M:4/4
K:E
V:1 treble nm="Grand Piano"
V:3 treble 
V:2 bass 
V:4 bass 
V:5 bass 
V:1
 G4 F2 E2 | B6 z2 | E2 G2 F2 E2 | [DF]6 z2 | [DF][DF][DF][DF] [DF][FA][EG][DF] | G6 z2 | %6
w: C.~E.~Hunter * *||||||
 BBG[FA] [GB]4 | cccc [GB]4 | [Ge][Ge][Bd]c BG[EG][DF] | E6 z2 | B2- B/B/B G2 B2 | %11
w: |||||
 c2- c/c/c e2 c2 | [GB][GB][GB][GB] [Ac][GB][GB][B,EG] | F4 z2 F2 | GGG[FA] [GB]4 | %15
w: ||||
 [Ge][Ge][Bd][Ac] [GB]4 | %16
w: |
 [GB]2 (3[GB]AG (3FGA G[DF][Q:1/4=106][Q:1/4=105][Q:1/4=103][Q:1/4=101][Q:1/4=100][Q:1/4=98][Q:1/4=96][Q:1/4=95][Q:1/4=93][Q:1/4=91][Q:1/4=89][Q:1/4=88][Q:1/4=86][Q:1/4=84][Q:1/4=83] | %17
w: |
 [B,E]6 z2 |] %18
w: |
V:2
 [E,B,E]4 [E,A,E]2 [E,G,]2 | [E,G,E]6 z2 | [E,G,]2 [E,B,E]2 [E,A,E]2 [E,G,]2 | [B,,B,]6 z2 | %4
 [B,,B,][B,,B,][B,,B,][B,,B,] [B,,B,][B,,B,][B,,B,][B,,B,] | [E,B,E]6 z2 | %6
 [E,G,E][E,G,E][E,B,E][E,B,] [E,E]4 | [A,EA][A,EA][A,EA][A,EA][K:bass] [E,E]4 | %8
 [E,B,][E,B,][G,B,][K:treble][A,EA] [B,EG][K:bass][B,E][B,,B,][B,,A,] | [E,G,]6 z2 | %10
 [E,G,E]2- [E,G,E]/[E,G,E]/[E,G,E] [E,B,E]2 [E,G,E]2 | [A,E]2- [A,E]/[A,E]/[A,E] [A,CE]2 [A,EA]2 | %12
 [E,E][E,E][E,E][E,E] [E,E][E,E][E,E]E, | z4 A4 | [E,B,E][E,B,E][E,B,E][E,B,] [E,E]4 | %15
 [E,B,][E,B,][E,E][E,E] [E,E]4 | [E,E]2 (3[E,E][F,CF][G,B,E] (3[A,D][G,B,E][F,CF] [B,E][B,,A,] | %17
 [E,G,]6 z2 |] %18
V:3
 x8 | x8 | x8 | x8 | x8 | x8 | x8 | x8 | x8 | x8 | x8 | x8 | x8 | [B,-D]6 B,2 | x8 | x8 | x8 | %17
 x8 |] %18
V:4
 x8 | x8 | x8 | x8 | x8 | x8 | x8 | x4[K:bass] x4 | x3[K:treble] x2[K:bass] x3 | x8 | x8 | x8 | %12
 x8 | z4 z2 D,2 | x8 | x8 | x8 | x8 |] %18
V:5
 x8 | x8 | x8 | x8 | x8 | x8 | x8 | x4[K:bass] x4 | x3[K:treble] x2[K:bass] x3 | x8 | x8 | x8 | %12
 x8 | B,,6 z2 | x8 | x8 | x8 | x8 |] %18

